X:1
T: Kind Dearie
C:
R:Reel
Q: 232
K:Bb
M:4/4
L:1/8
|:dc|d2 F2 F2 GA|BA Bc B2 d2|cB cd ed cB|d2 G2 G2 dc|
d2 F2 F2 GA|BA Bc B2 ba|gf ga bg fe|d2 B2 B2:|
|:f2|gf ga b2 d2|ed ef g2 B2|cB cd ed cB|d2 G2 G2 dc|
d2 F2 F2 GA|BA Bc B2 ba|gf ga bg fe|d2 B2 B2:|
|:((3fga)|bf df gf df|bf df gf df|ba gf ed cB|d2 G2 G2 dc|
BF DF GF DF|BF DF GF DF|Bf ga bg fe|d2 B2 B2:|
